Papirus-nordic/22x22/places/folder-nordic-projects.svg

<svg xmlns="http://www.w3.org/2000/svg" width="22" height="22" version="1"><rect width="20" height="12" x="1" y="8.5" rx="1" ry="1" opacity=".2"/><path d="M1 16c0 .554.446 1 1 1h18c.554 0 1-.446 1-1V5c0-.554-.446-1-1-1H10V3c0-.554-.446-1-1-1H2c-.554 0-1 .446-1 1" fill="#6c9b9a"/><rect width="20" height="12" x="1" y="7.5" rx="1" ry="1" opacity=".2"/><rect width="16" height="8" x="3" y="6" rx="1" ry="1" fill="#e4e4e4"/><rect width="20" height="12" x="1" y="8" rx="1" ry="1" fill="#82abaa"/><path d="M2 2c-.554 0-1 .446-1 1v.5c0-.554.446-1 1-1h7c.554 0 1 .446 1 1V3c0-.554-.446-1-1-1zm8 2v.5h10c.554 0 1 .446 1 1V5c0-.554-.446-1-1-1z" opacity=".1" fill="#fff"/><path d="M13 10a1.495 1.495 0 0 0 0 2.82V14c.456.304.781.695 1 1.088V12.82A1.495 1.495 0 0 0 14 10v1a.499.499 0 1 1-1 0zm-2 4c-3 0-3 3-3 3H7v1h8v-1h-1s0-3-3-3zm0 1c2 0 2 2 2 2H9s0-2 2-2z" fill="#4e6766"/></svg>

<svg xmlns="http://www.w3.org/2000/svg" width="22" height="22" version="1">
 <rect style="opacity:0.2" width="20" height="12" x="1" y="8.5" rx="1" ry="1"/>
 <path style="fill:#6c9b9a" d="m1 16c0 0.554 0.446 1 1 1h18c0.554 0 1-0.446 1-1v-11c0-0.554-0.446-1-1-1h-10v-1c0-0.554-0.446-1-1-1h-7c-0.554 0-1 0.446-1 1"/>
 <rect style="opacity:0.2" width="20" height="12" x="1" y="7.5" rx="1" ry="1"/>
 <rect style="fill:#e4e4e4" width="16" height="8" x="3" y="6" rx="1" ry="1"/>
 <rect style="fill:#82abaa" width="20" height="12" x="1" y="8" rx="1" ry="1"/>
 <path style="opacity:0.1;fill:#ffffff" d="m2 2c-0.554 0-1 0.446-1 1v0.5c0-0.554 0.446-1 1-1h7c0.554 0 1 0.446 1 1v-0.5c0-0.554-0.446-1-1-1zm8 2v0.5h10c0.554 0 1 0.446 1 1v-0.5c0-0.554-0.446-1-1-1z"/>
 <path style="fill:#4e6766" d="M 13,10 C 12.4,10.212 12,10.777 12,11.412 12,12.064 12.419,12.614 13,12.82 V 14 C 13.456,14.304 13.781,14.695 14,15.088 V 12.82 C 14.581,12.614 15,12.064 15,11.412 15,10.777 14.6,10.212 14,10 V 11 C 14,11.277 13.777,11.5 13.5,11.5 13.223,11.5 13,11.277 13,11 Z M 11,14 C 8,14 8,17 8,17 H 7 V 18 H 15 V 17 H 14 C 14,17 14,14 11,14 Z M 11,15 C 13,15 13,17 13,17 H 9 C 9,17 9,15 11,15 Z"/>
</svg>
